assets/home-two-img/service_3_3.svg

<svg width="50" height="50" viewBox="0 0 50 50" fill="none" xmlns="http://www.w3.org/2000/svg">
<g clip-path="url(#clip0_457_26031)">
<path d="M28.4178 45.2651H24.0615C23.7049 44.0253 22.7187 43.0501 21.4721 42.7096V37.9873C21.4721 37.448 21.0349 37.0107 20.4955 37.0107C19.9562 37.0107 19.5189 37.448 19.5189 37.9873V42.7096C17.9452 43.1395 16.7847 44.5809 16.7847 46.289C16.7847 48.3351 18.4493 49.9997 20.4954 49.9997C22.2208 49.9997 23.6748 48.816 24.0883 47.2181H28.4176C28.9569 47.2181 29.3941 46.7808 29.3941 46.2415C29.3941 45.7022 28.9571 45.2651 28.4178 45.2651ZM20.4956 48.0468C19.5265 48.0468 18.7379 47.2582 18.7379 46.2891C18.7379 45.3199 19.5265 44.5313 20.4956 44.5313C21.4647 44.5313 22.2533 45.3199 22.2533 46.2891C22.2533 47.2582 21.4648 48.0468 20.4956 48.0468Z" fill="#3E66F3"/>
<path d="M13.3413 45.2651H1.74658C1.20723 45.2651 0.77002 45.7024 0.77002 46.2417C0.77002 46.781 1.20723 47.2183 1.74658 47.2183H13.3413C13.8807 47.2183 14.3179 46.781 14.3179 46.2417C14.3179 45.7024 13.8807 45.2651 13.3413 45.2651Z" fill="#3E66F3"/>
<path d="M32.995 3.32031C31.3797 3.32031 30.0654 4.63447 30.0654 6.2499C30.0654 7.86533 31.3796 9.17949 32.995 9.17949C34.6104 9.17949 35.9246 7.86533 35.9246 6.2499C35.9246 4.63447 34.6104 3.32031 32.995 3.32031ZM32.995 7.22637C32.4565 7.22637 32.0185 6.78828 32.0185 6.2498C32.0185 5.71133 32.4565 5.27324 32.995 5.27324C33.5335 5.27324 33.9716 5.71133 33.9716 6.2498C33.9716 6.78828 33.5335 7.22637 32.995 7.22637Z" fill="#3E66F3"/>
<path d="M18.5749 5.27295H6.26953C5.73018 5.27295 5.29297 5.71025 5.29297 6.24951C5.29297 6.78877 5.73018 7.22607 6.26953 7.22607H18.5749C19.1143 7.22607 19.5515 6.78877 19.5515 6.24951C19.5515 5.71025 19.1143 5.27295 18.5749 5.27295Z" fill="#3E66F3"/>
<path d="M27.4844 5.55957C27.3027 5.37783 27.0509 5.27344 26.7939 5.27344C26.5371 5.27344 26.2861 5.37783 26.1035 5.55957C25.9219 5.74121 25.8174 5.99307 25.8174 6.25C25.8174 6.50684 25.9219 6.75879 26.1035 6.94033C26.2852 7.12197 26.5371 7.22656 26.7939 7.22656C27.0508 7.22656 27.3027 7.12207 27.4844 6.94033C27.667 6.75879 27.7705 6.50684 27.7705 6.25C27.7705 5.99307 27.667 5.74121 27.4844 5.55957Z" fill="#3E66F3"/>
<path d="M23.3672 5.55957C23.1845 5.37783 22.9336 5.27344 22.6768 5.27344C22.4189 5.27344 22.168 5.37783 21.9863 5.55957C21.8037 5.74121 21.7002 5.99219 21.7002 6.25C21.7002 6.50684 21.8037 6.75879 21.9863 6.94033C22.168 7.12197 22.4189 7.22656 22.6768 7.22656C22.9336 7.22656 23.1855 7.12207 23.3672 6.94033C23.5488 6.75879 23.6533 6.50684 23.6533 6.25C23.6533 5.99209 23.5488 5.74121 23.3672 5.55957Z" fill="#3E66F3"/>
<path d="M32.995 14.2573C31.3797 14.2573 30.0654 15.5715 30.0654 17.1869C30.0654 18.8023 31.3796 20.1165 32.995 20.1165C34.6104 20.1165 35.9246 18.8023 35.9246 17.1869C35.9246 15.5715 34.6104 14.2573 32.995 14.2573ZM32.995 18.1634C32.4565 18.1634 32.0185 17.7253 32.0185 17.1868C32.0185 16.6483 32.4565 16.2103 32.995 16.2103C33.5335 16.2103 33.9716 16.6483 33.9716 17.1868C33.9716 17.7253 33.5335 18.1634 32.995 18.1634Z" fill="#3E66F3"/>
<path d="M18.5749 16.21H6.26953C5.73018 16.21 5.29297 16.6473 5.29297 17.1865C5.29297 17.7258 5.73018 18.1631 6.26953 18.1631H18.5749C19.1143 18.1631 19.5515 17.7258 19.5515 17.1865C19.5515 16.6473 19.1143 16.21 18.5749 16.21Z" fill="#3E66F3"/>
<path d="M27.4844 16.4956C27.3027 16.314 27.0518 16.2104 26.7939 16.2104C26.5371 16.2104 26.2852 16.314 26.1035 16.4956C25.9219 16.6782 25.8174 16.9301 25.8174 17.187C25.8174 17.4438 25.9219 17.6947 26.1035 17.8773C26.2852 18.059 26.5371 18.1636 26.7939 18.1636C27.0508 18.1636 27.3027 18.0591 27.4844 17.8773C27.667 17.6947 27.7705 17.4438 27.7705 17.187C27.7705 16.9301 27.667 16.6782 27.4844 16.4956Z" fill="#3E66F3"/>
<path d="M23.3672 16.4956C23.1855 16.314 22.9336 16.2104 22.6768 16.2104C22.4189 16.2104 22.168 16.314 21.9854 16.4956C21.8037 16.6782 21.7002 16.9301 21.7002 17.187C21.7002 17.4438 21.8037 17.6947 21.9854 17.8773C22.168 18.059 22.4189 18.1636 22.6768 18.1636C22.9336 18.1636 23.1846 18.0591 23.3672 17.8773C23.5488 17.6958 23.6533 17.4438 23.6533 17.187C23.6533 16.9301 23.5488 16.6782 23.3672 16.4956Z" fill="#3E66F3"/>
<path d="M37.9752 11.9135C39.7987 10.7739 41.015 8.74932 41.015 6.44502C41.015 2.89121 38.1238 0 34.57 0H6.44639C2.89268 0 0.00146484 2.89121 0.00146484 6.44502C0.00146484 8.74932 1.21777 10.7739 3.04131 11.9135C1.21777 13.053 0.00146484 15.0776 0.00146484 17.3819C0.00146484 19.6862 1.21777 21.7108 3.04131 22.8504C1.21777 23.99 0.00146484 26.0146 0.00146484 28.3189C0.00146484 31.8728 2.89268 34.764 6.44648 34.764H25.0002C25.5395 34.764 25.9768 34.3267 25.9768 33.7874C25.9768 33.2481 25.5395 32.8108 25.0002 32.8108H6.44639C3.96953 32.8108 1.95439 30.7957 1.95439 28.3188C1.95439 25.842 3.96943 23.8269 6.44639 23.8269H34.57C38.1238 23.8269 41.015 20.9356 41.015 17.3818C41.015 15.0776 39.7987 13.053 37.9752 11.9135ZM1.95449 6.44502C1.95449 3.96816 3.96953 1.95303 6.44648 1.95303H34.5701C37.047 1.95303 39.0621 3.96816 39.0621 6.44502C39.0621 8.92188 37.047 10.937 34.5701 10.937H6.44639C3.96953 10.937 1.95449 8.92188 1.95449 6.44502ZM34.57 21.8739H6.44639C3.96943 21.8739 1.95439 19.8588 1.95439 17.3819C1.95439 14.9051 3.96943 12.8899 6.44639 12.8899H34.57C37.0469 12.8899 39.062 14.9051 39.062 17.3819C39.062 19.8588 37.0469 21.8739 34.57 21.8739Z" fill="#3E66F3"/>
<path d="M18.5749 27.147H6.26953C5.73018 27.147 5.29297 27.5843 5.29297 28.1235C5.29297 28.6628 5.73018 29.1001 6.26953 29.1001H18.5749C19.1143 29.1001 19.5515 28.6628 19.5515 28.1235C19.5515 27.5843 19.1143 27.147 18.5749 27.147Z" fill="#3E66F3"/>
<path d="M27.4844 27.4336C27.3027 27.252 27.0518 27.1475 26.7939 27.1475C26.537 27.1475 26.2851 27.2519 26.1035 27.4336C25.9219 27.6152 25.8174 27.8671 25.8174 28.124C25.8174 28.3809 25.9219 28.6328 26.1035 28.8144C26.2852 28.996 26.5371 29.1006 26.7939 29.1006C27.0508 29.1006 27.3027 28.9961 27.4844 28.8144C27.667 28.6328 27.7705 28.3809 27.7705 28.124C27.7705 27.8671 27.667 27.6152 27.4844 27.4336Z" fill="#3E66F3"/>
<path d="M23.3672 27.4336C23.1855 27.252 22.9336 27.1475 22.6768 27.1475C22.4189 27.1475 22.168 27.2519 21.9854 27.4336C21.8037 27.6152 21.7002 27.8671 21.7002 28.124C21.7002 28.3809 21.8037 28.6328 21.9854 28.8144C22.168 28.996 22.4189 29.1006 22.6768 29.1006C22.9336 29.1006 23.1855 28.9961 23.3672 28.8144C23.5488 28.6328 23.6533 28.3809 23.6533 28.124C23.6533 27.8671 23.5488 27.6152 23.3672 27.4336Z" fill="#3E66F3"/>
<path d="M49.2501 29.1083C49.188 29.0935 43.0047 27.5824 39.7584 24.312C39.6225 24.1751 39.4467 24.0825 39.2587 24.0439C39.1946 24.0306 39.1282 24.0235 39.0603 24.0234C39.0593 24.0234 39.0582 24.0234 39.0572 24.0234C38.9136 24.0236 38.7775 24.0549 38.6551 24.1108C38.5482 24.1593 38.4499 24.2271 38.3656 24.3121C35.1272 27.5744 28.9356 29.0936 28.8739 29.1084C28.4347 29.2137 28.125 29.6064 28.125 30.0581V39.2028C28.125 43.2719 30.749 45.3776 33.5847 47.0472C36.0772 48.5146 38.5682 49.8673 38.5931 49.8808C38.736 49.9583 38.8961 49.9989 39.0587 49.9989H39.0652C39.2279 49.9989 39.3879 49.9583 39.5309 49.8808C39.5558 49.8673 42.0468 48.5147 44.5393 47.0472C47.3749 45.3776 49.9988 43.2719 49.9988 39.2028V30.0581C49.999 29.6063 49.6893 29.2136 49.2501 29.1083ZM48.0459 39.2027C48.0459 42.1283 46.325 43.7293 43.5484 45.3642C41.7204 46.4403 39.8923 47.4545 39.0619 47.9109C38.2317 47.4547 36.4043 46.4409 34.5755 45.3642C31.7988 43.7294 30.0779 42.1284 30.0779 39.2027V30.8068C31.8007 30.3131 36.0905 28.8976 39.0619 26.3302C42.0333 28.8976 46.323 30.3131 48.0458 30.8068V39.2027H48.0459Z" fill="#3E66F3"/>
<path d="M43.818 32.5559C43.4366 32.1747 42.8183 32.1747 42.4371 32.5559L38.1886 36.8043L36.9747 35.5902C36.5933 35.2089 35.975 35.2089 35.5936 35.5902C35.2123 35.9715 35.2123 36.5898 35.5936 36.9712L37.4982 38.8758C37.6889 39.0664 37.9388 39.1618 38.1887 39.1618C38.4386 39.1618 38.6886 39.0664 38.8793 38.8758L43.8182 33.937C44.1993 33.5556 44.1994 32.9373 43.818 32.5559Z" fill="#3E66F3"/>
</g>
<defs>
<clipPath id="clip0_457_26031">
<rect width="50" height="50" fill="white"/>
</clipPath>
</defs>
</svg>

<?xml version="1.0" encoding="utf-8"?>
<!-- Generator: Adobe Illustrator 24.0.1, SVG Export Plug-In . SVG Version: 6.00 Build 0)  -->
<svg version="1.1" id="Layer_1" xmlns="http://www.w3.org/2000/svg" xmlns:xlink="http://www.w3.org/1999/xlink" x="0px" y="0px"
	 viewBox="0 0 50 50" style="enable-background:new 0 0 50 50;" xml:space="preserve">
<style type="text/css">
	.st0{fill:#11CDBD;}
</style>
<g>
	<path class="st0" d="M28.4,45.3h-4.4c-0.4-1.2-1.3-2.2-2.6-2.6V38c0-0.5-0.4-1-1-1c-0.5,0-1,0.4-1,1v4.7c-1.6,0.4-2.7,1.9-2.7,3.6
		c0,2,1.7,3.7,3.7,3.7c1.7,0,3.2-1.2,3.6-2.8h4.3c0.5,0,1-0.4,1-1S29,45.3,28.4,45.3z M20.5,48c-1,0-1.8-0.8-1.8-1.8
		c0-1,0.8-1.8,1.8-1.8c1,0,1.8,0.8,1.8,1.8C22.3,47.3,21.5,48,20.5,48z"/>
	<path class="st0" d="M13.3,45.3H1.7c-0.5,0-1,0.4-1,1s0.4,1,1,1h11.6c0.5,0,1-0.4,1-1S13.9,45.3,13.3,45.3z"/>
	<path class="st0" d="M33,3.3c-1.6,0-2.9,1.3-2.9,2.9s1.3,2.9,2.9,2.9c1.6,0,2.9-1.3,2.9-2.9S34.6,3.3,33,3.3z M33,7.2
		c-0.5,0-1-0.4-1-1c0-0.5,0.4-1,1-1c0.5,0,1,0.4,1,1C34,6.8,33.5,7.2,33,7.2z"/>
	<path class="st0" d="M18.6,5.3H6.3c-0.5,0-1,0.4-1,1s0.4,1,1,1h12.3c0.5,0,1-0.4,1-1S19.1,5.3,18.6,5.3z"/>
	<path class="st0" d="M27.5,5.6c-0.2-0.2-0.4-0.3-0.7-0.3c-0.3,0-0.5,0.1-0.7,0.3c-0.2,0.2-0.3,0.4-0.3,0.7c0,0.3,0.1,0.5,0.3,0.7
		c0.2,0.2,0.4,0.3,0.7,0.3c0.3,0,0.5-0.1,0.7-0.3c0.2-0.2,0.3-0.4,0.3-0.7C27.8,6,27.7,5.7,27.5,5.6z"/>
	<path class="st0" d="M23.4,5.6c-0.2-0.2-0.4-0.3-0.7-0.3c-0.3,0-0.5,0.1-0.7,0.3c-0.2,0.2-0.3,0.4-0.3,0.7c0,0.3,0.1,0.5,0.3,0.7
		c0.2,0.2,0.4,0.3,0.7,0.3c0.3,0,0.5-0.1,0.7-0.3c0.2-0.2,0.3-0.4,0.3-0.7C23.7,6,23.5,5.7,23.4,5.6z"/>
	<path class="st0" d="M33,14.3c-1.6,0-2.9,1.3-2.9,2.9s1.3,2.9,2.9,2.9c1.6,0,2.9-1.3,2.9-2.9S34.6,14.3,33,14.3z M33,18.2
		c-0.5,0-1-0.4-1-1s0.4-1,1-1c0.5,0,1,0.4,1,1S33.5,18.2,33,18.2z"/>
	<path class="st0" d="M18.6,16.2H6.3c-0.5,0-1,0.4-1,1c0,0.5,0.4,1,1,1h12.3c0.5,0,1-0.4,1-1C19.6,16.6,19.1,16.2,18.6,16.2z"/>
	<path class="st0" d="M27.5,16.5c-0.2-0.2-0.4-0.3-0.7-0.3c-0.3,0-0.5,0.1-0.7,0.3c-0.2,0.2-0.3,0.4-0.3,0.7c0,0.3,0.1,0.5,0.3,0.7
		c0.2,0.2,0.4,0.3,0.7,0.3c0.3,0,0.5-0.1,0.7-0.3c0.2-0.2,0.3-0.4,0.3-0.7C27.8,16.9,27.7,16.7,27.5,16.5z"/>
	<path class="st0" d="M23.4,16.5c-0.2-0.2-0.4-0.3-0.7-0.3c-0.3,0-0.5,0.1-0.7,0.3c-0.2,0.2-0.3,0.4-0.3,0.7c0,0.3,0.1,0.5,0.3,0.7
		c0.2,0.2,0.4,0.3,0.7,0.3c0.3,0,0.5-0.1,0.7-0.3c0.2-0.2,0.3-0.4,0.3-0.7C23.7,16.9,23.5,16.7,23.4,16.5z"/>
	<path class="st0" d="M38,11.9c1.8-1.1,3-3.2,3-5.5C41,2.9,38.1,0,34.6,0H6.4C2.9,0,0,2.9,0,6.4c0,2.3,1.2,4.3,3,5.5
		c-1.8,1.1-3,3.2-3,5.5c0,2.3,1.2,4.3,3,5.5C1.2,24,0,26,0,28.3c0,3.6,2.9,6.4,6.4,6.4H25c0.5,0,1-0.4,1-1s-0.4-1-1-1H6.4
		c-2.5,0-4.5-2-4.5-4.5c0-2.5,2-4.5,4.5-4.5h28.1c3.6,0,6.4-2.9,6.4-6.4C41,15.1,39.8,13.1,38,11.9z M2,6.4C2,4,4,2,6.4,2h28.1
		c2.5,0,4.5,2,4.5,4.5s-2,4.5-4.5,4.5H6.4C4,10.9,2,8.9,2,6.4z M34.6,21.9H6.4c-2.5,0-4.5-2-4.5-4.5c0-2.5,2-4.5,4.5-4.5h28.1
		c2.5,0,4.5,2,4.5,4.5C39.1,19.9,37,21.9,34.6,21.9z"/>
	<path class="st0" d="M18.6,27.1H6.3c-0.5,0-1,0.4-1,1c0,0.5,0.4,1,1,1h12.3c0.5,0,1-0.4,1-1C19.6,27.6,19.1,27.1,18.6,27.1z"/>
	<path class="st0" d="M27.5,27.4c-0.2-0.2-0.4-0.3-0.7-0.3c-0.3,0-0.5,0.1-0.7,0.3c-0.2,0.2-0.3,0.4-0.3,0.7c0,0.3,0.1,0.5,0.3,0.7
		c0.2,0.2,0.4,0.3,0.7,0.3c0.3,0,0.5-0.1,0.7-0.3c0.2-0.2,0.3-0.4,0.3-0.7C27.8,27.9,27.7,27.6,27.5,27.4z"/>
	<path class="st0" d="M23.4,27.4c-0.2-0.2-0.4-0.3-0.7-0.3c-0.3,0-0.5,0.1-0.7,0.3c-0.2,0.2-0.3,0.4-0.3,0.7c0,0.3,0.1,0.5,0.3,0.7
		c0.2,0.2,0.4,0.3,0.7,0.3c0.3,0,0.5-0.1,0.7-0.3c0.2-0.2,0.3-0.4,0.3-0.7C23.7,27.9,23.5,27.6,23.4,27.4z"/>
	<path class="st0" d="M49.3,29.1c-0.1,0-6.2-1.5-9.5-4.8c-0.1-0.1-0.3-0.2-0.5-0.3c-0.1,0-0.1,0-0.2,0c0,0,0,0,0,0
		c-0.1,0-0.3,0-0.4,0.1c-0.1,0-0.2,0.1-0.3,0.2c-3.2,3.3-9.4,4.8-9.5,4.8c-0.4,0.1-0.7,0.5-0.7,0.9v9.1c0,4.1,2.6,6.2,5.5,7.8
		c2.5,1.5,5,2.8,5,2.8c0.1,0.1,0.3,0.1,0.5,0.1h0c0.2,0,0.3,0,0.5-0.1c0,0,2.5-1.4,5-2.8c2.8-1.7,5.5-3.8,5.5-7.8v-9.1
		C50,29.6,49.7,29.2,49.3,29.1z M48,39.2c0,2.9-1.7,4.5-4.5,6.2c-1.8,1.1-3.7,2.1-4.5,2.5c-0.8-0.5-2.7-1.5-4.5-2.5
		c-2.8-1.6-4.5-3.2-4.5-6.2v-8.4c1.7-0.5,6-1.9,9-4.5c3,2.6,7.3,4,9,4.5L48,39.2L48,39.2z"/>
	<path class="st0" d="M43.8,32.6c-0.4-0.4-1-0.4-1.4,0l-4.2,4.2L37,35.6c-0.4-0.4-1-0.4-1.4,0c-0.4,0.4-0.4,1,0,1.4l1.9,1.9
		c0.2,0.2,0.4,0.3,0.7,0.3c0.2,0,0.5-0.1,0.7-0.3l4.9-4.9C44.2,33.6,44.2,32.9,43.8,32.6z"/>
</g>
</svg>
